gama.ui.shared/icons_svg/light/toolbar/view.reload.svg

<svg height="24.75" viewBox="-596.838 -2881.392 24.75 24.75" width="24.75" xmlns="http://www.w3.org/2000/svg"><g fill="none"><circle cx="-584.463" cy="-2869.017" fill="#666" r="8"/><circle cx="-584.463" cy="-2869.017" r="8"/><circle cx="-584.463" cy="-2869.017" fill="#fff" r="8"/><circle cx="-584.463" cy="-2869.017" r="8"/><path d="m-590.6997-2874.076c1.50376-1.8508 3.7728-2.972 6.22865-2.972 4.42235 0 8.0083 3.586 8.0083 8.0083 0 4.4224-3.58595 8.0083-8.0083 8.0083s-7.73245-3.3012-7.9905-7.5189c-.01779-.2491.16905-.4537.41821-.4717.24914-.0177.45384.169.4716.4183.23134 3.7461 3.33679 6.6825 7.10959 6.6825s7.11849-3.1855 7.11849-7.1185-3.19444-7.1185-7.12739-7.1185c-2.19785 0-4.2266 1.0055-5.56131 2.6695h2.44696c.24916 0 .4449.1957.4449.4447 0 .2493-.19574.445-.4449.445h-3.5592c-.2492 0-.4449-.1957-.4449-.445v-3.559c0-.2492.1957-.445.4449-.445.2491 0 .4449.1958.4449.445z" fill="#5a76a1"/></g></svg>

<?xml version="1.0" encoding="UTF-8" standalone="no"?>
<!DOCTYPE svg PUBLIC "-//W3C//DTD SVG 1.1//EN" "http://www.w3.org/Graphics/SVG/1.1/DTD/svg11.dtd">
<svg xmlns="http://www.w3.org/2000/svg" xmlns:dc="http://purl.org/dc/elements/1.1/" version="1.1" xmlns:xl="http://www.w3.org/1999/xlink" viewBox="-596.8377 -2881.392 24.75 24.75" width="24.75" height="24.75">
  <defs/>
  <g id="SOURCES" stroke-dasharray="none" stroke-opacity="1" stroke="none" fill="none" fill-opacity="1">
    <title>SOURCES</title>
    <g id="SOURCES_Light">
      <title>Light</title>
      <g id="Group_12480">
        <g id="Graphic_12483">
          <circle cx="-584.4627" cy="-2869.017" r="8.00000702080164" fill="#666"/>
          <circle cx="-584.4627" cy="-2869.017" r="8.00000702080164" stroke="black" stroke-linecap="round" stroke-linejoin="round" stroke-width="0"/>
        </g>
        <g id="Graphic_12482"/>
        <g id="Graphic_12481">
          <circle cx="-584.4627" cy="-2869.017" r="8.00000702080164" fill="white"/>
          <circle cx="-584.4627" cy="-2869.017" r="8.00000702080164" stroke="black" stroke-linecap="round" stroke-linejoin="round" stroke-width="0"/>
        </g>
      </g>
      <g id="Group_12478">
        <title>refresh-left</title>
        <g id="Graphic_12479">
          <path d="M -590.6997 -2874.076 C -589.19594 -2875.9268 -586.9269 -2877.048 -584.47105 -2877.048 C -580.0487 -2877.048 -576.46275 -2873.462 -576.46275 -2869.0397 C -576.46275 -2864.6173 -580.0487 -2861.0314 -584.47105 -2861.0314 C -588.8934 -2861.0314 -592.2035 -2864.3326 -592.46155 -2868.5503 C -592.47934 -2868.7994 -592.2925 -2869.004 -592.04334 -2869.022 C -591.7942 -2869.0397 -591.5895 -2868.853 -591.57174 -2868.6037 C -591.3404 -2864.8576 -588.23495 -2861.9212 -584.46215 -2861.9212 C -580.68935 -2861.9212 -577.34366 -2865.1067 -577.34366 -2869.0397 C -577.34366 -2872.9727 -580.5381 -2876.1582 -584.47105 -2876.1582 C -586.6689 -2876.1582 -588.69765 -2875.1527 -590.03236 -2873.4887 L -587.5854 -2873.4887 C -587.33624 -2873.4887 -587.1405 -2873.293 -587.1405 -2873.044 C -587.1405 -2872.7947 -587.33624 -2872.599 -587.5854 -2872.599 L -591.1446 -2872.599 C -591.3938 -2872.599 -591.5895 -2872.7947 -591.5895 -2873.044 L -591.5895 -2876.603 C -591.5895 -2876.8522 -591.3938 -2877.048 -591.1446 -2877.048 C -590.8955 -2877.048 -590.6997 -2876.8522 -590.6997 -2876.603 Z" fill="#5a76a1"/>
        </g>
      </g>
    </g>
  </g>
</svg>
